source/img/icons/socials/facebook_darkblue.svg

<svg width="32" height="32" viewBox="0 0 32 32" fill="none" xmlns="http://www.w3.org/2000/svg">
<path d="M8.4341 17.0432H11.9418V31.4839C11.9418 31.769 12.1728 32 12.4579 32H18.4054C18.6905 32 18.9215 31.769 18.9215 31.4839V17.1112H22.9539C23.2161 17.1112 23.4367 16.9145 23.4667 16.654L24.0791 11.3377C24.0959 11.1914 24.0496 11.045 23.9517 10.9352C23.8538 10.8254 23.7136 10.7625 23.5665 10.7625H18.9217V7.42999C18.9217 6.42539 19.4626 5.91597 20.5296 5.91597C20.6816 5.91597 23.5665 5.91597 23.5665 5.91597C23.8516 5.91597 24.0826 5.68485 24.0826 5.39985V0.519948C24.0826 0.234839 23.8516 0.00381935 23.5665 0.00381935H19.3812C19.3517 0.00237419 19.2861 0 19.1895 0C18.4633 0 15.9391 0.142555 13.9452 1.97688C11.736 4.0096 12.0431 6.44346 12.1165 6.86545V10.7624H8.4341C8.14899 10.7624 7.91797 10.9934 7.91797 11.2786V16.527C7.91797 16.8121 8.14899 17.0432 8.4341 17.0432Z" fill="#1F3F68"/>
</svg>

<svg width="32" height="32" fill="none" xmlns="http://www.w3.org/2000/svg"><path d="M8.434 17.043h3.508v14.44c0 .286.23.517.516.517h5.947a.516.516 0 00.517-.516V17.11h4.032a.516.516 0 00.513-.457l.612-5.316a.516.516 0 00-.512-.575h-4.645V7.43c0-1.005.54-1.514 1.608-1.514h3.037a.516.516 0 00.516-.516V.52a.516.516 0 00-.516-.516H19.38A4.103 4.103 0 0019.19 0c-.726 0-3.25.143-5.244 1.977-2.209 2.033-1.902 4.466-1.829 4.888v3.897H8.434a.516.516 0 00-.516.517v5.248c0 .285.231.516.516.516z" fill="#1F3F68"/></svg>
